pub/sources/accelerate-svgrepo-com.svg

<?xml version="1.0" encoding="UTF-8"?>
<svg xmlns="http://www.w3.org/2000/svg" xmlns:xlink="http://www.w3.org/1999/xlink" width="50px" height="px" viewBox="0 0 50 50" version="1.1">
<g id="surface1">
<path style=" stroke:none;fill-rule:nonzero;fill:rgb(90.588236%,23.137255%,21.568628%);fill-opacity:1;" d="M 24.511719 14.707031 C 24.511719 14.976562 24.730469 15.195312 25 15.195312 C 25.269531 15.195312 25.488281 14.976562 25.488281 14.707031 C 25.488281 14.4375 25.269531 14.21875 25 14.21875 C 24.730469 14.21875 24.511719 14.4375 24.511719 14.707031 Z M 24.511719 14.707031 "/>
<path style=" stroke:none;fill-rule:nonzero;fill:rgb(22.352941%,22.352941%,22.745098%);fill-opacity:1;" d="M 19.546875 36.351562 C 19.648438 36.320312 19.746094 36.285156 19.847656 36.253906 C 19.75 36.285156 19.648438 36.320312 19.546875 36.351562 Z M 19.546875 36.351562 C 19.648438 36.320312 19.746094 36.285156 19.847656 36.253906 C 19.75 36.285156 19.648438 36.320312 19.546875 36.351562 Z M 19.546875 36.351562 "/>
<path style=" stroke:none;fill-rule:nonzero;fill:rgb(90.588236%,23.137255%,21.568628%);fill-opacity:1;" d="M 24.992188 12.53125 C 26.183594 12.53125 27.148438 13.496094 27.148438 14.6875 C 27.148438 15.878906 26.183594 16.84375 24.992188 16.84375 C 23.796875 16.84375 22.832031 15.878906 22.832031 14.6875 C 22.832031 13.496094 23.804688 12.53125 24.992188 12.53125 M 24.992188 11.554688 C 23.257812 11.554688 21.855469 12.953125 21.855469 14.6875 C 21.855469 16.421875 23.257812 17.820312 24.992188 17.820312 C 26.722656 17.820312 28.125 16.421875 28.125 14.6875 C 28.125 12.953125 26.722656 11.554688 24.992188 11.554688 Z M 24.992188 11.554688 "/>
<path style=" stroke:none;fill-rule:nonzero;fill:rgb(22.352941%,22.352941%,22.745098%);fill-opacity:1;" d="M 35.679688 25.855469 C 35.699219 25.429688 35.707031 25.003906 35.707031 24.574219 C 35.707031 15.804688 31.503906 8.015625 25 3.117188 C 18.5 8.015625 14.296875 15.804688 14.296875 24.574219 C 14.296875 25.003906 14.304688 25.429688 14.328125 25.851562 C 11.59375 28.585938 9.902344 32.359375 9.902344 36.527344 C 9.902344 39.539062 10.78125 42.34375 12.300781 44.695312 C 13.78125 42.265625 15.949219 40.296875 18.535156 39.066406 C 20.4375 38.160156 22.574219 37.652344 24.824219 37.652344 C 27.183594 37.652344 29.410156 38.207031 31.382812 39.199219 C 33.945312 40.484375 36.085938 42.503906 37.515625 44.980469 C 39.144531 42.570312 40.097656 39.664062 40.097656 36.527344 C 40.097656 32.359375 38.40625 28.589844 35.679688 25.855469 Z M 17.144531 18.71875 C 17.59375 16.871094 18.261719 15.074219 19.125 13.375 C 19.976562 11.699219 21.019531 10.128906 22.230469 8.691406 C 23.082031 7.683594 24.007812 6.742188 25.003906 5.882812 C 26 6.742188 26.929688 7.683594 27.777344 8.691406 C 28.988281 10.132812 30.035156 11.707031 30.882812 13.375 C 31.75 15.074219 32.417969 16.871094 32.867188 18.71875 C 33.289062 20.46875 33.523438 22.269531 33.558594 24.085938 C 31.125 22.414062 28.171875 21.429688 25 21.429688 C 21.828125 21.429688 18.882812 22.414062 16.449219 24.085938 C 16.484375 22.269531 16.71875 20.46875 17.144531 18.71875 Z M 12.71875 40.652344 C 12.273438 39.335938 12.050781 37.945312 12.050781 36.53125 C 12.050781 34.785156 12.390625 33.085938 13.066406 31.492188 C 13.476562 30.527344 13.996094 29.617188 14.625 28.785156 C 15.097656 31.785156 16.0625 34.628906 17.445312 37.210938 C 15.667969 38.082031 14.078125 39.242188 12.71875 40.652344 Z M 30.503906 36.488281 C 30.46875 36.476562 30.429688 36.464844 30.394531 36.449219 C 30.375 36.441406 30.351562 36.4375 30.332031 36.425781 C 30.304688 36.414062 30.269531 36.402344 30.238281 36.390625 C 30.199219 36.375 30.167969 36.367188 30.128906 36.351562 C 30.089844 36.335938 30.054688 36.328125 30.015625 36.320312 L 29.972656 36.304688 C 29.921875 36.289062 29.867188 36.269531 29.820312 36.253906 C 29.761719 36.234375 29.703125 36.21875 29.648438 36.203125 L 29.503906 36.15625 C 29.492188 36.152344 29.484375 36.152344 29.46875 36.148438 C 29.414062 36.132812 29.355469 36.113281 29.300781 36.097656 C 29.242188 36.085938 29.183594 36.070312 29.132812 36.054688 L 28.78125 35.96875 C 28.730469 35.953125 28.675781 35.941406 28.628906 35.933594 C 28.570312 35.917969 28.511719 35.90625 28.453125 35.894531 C 28.390625 35.878906 28.332031 35.863281 28.265625 35.855469 L 28.253906 35.855469 C 28.207031 35.84375 28.160156 35.835938 28.117188 35.824219 C 28.097656 35.820312 28.082031 35.820312 28.0625 35.816406 C 28.007812 35.804688 27.953125 35.796875 27.894531 35.785156 C 27.835938 35.777344 27.777344 35.765625 27.71875 35.75 L 27.457031 35.707031 C 27.414062 35.703125 27.363281 35.695312 27.320312 35.6875 C 27.28125 35.683594 27.242188 35.671875 27.199219 35.667969 C 27.070312 35.648438 26.949219 35.632812 26.820312 35.621094 C 26.761719 35.617188 26.710938 35.605469 26.652344 35.601562 L 26.632812 35.601562 C 26.585938 35.59375 26.542969 35.589844 26.496094 35.585938 C 26.441406 35.582031 26.390625 35.578125 26.339844 35.570312 C 26.253906 35.5625 26.171875 35.558594 26.089844 35.550781 C 26.050781 35.546875 26.015625 35.546875 25.976562 35.542969 C 25.933594 35.539062 25.882812 35.539062 25.839844 35.53125 C 25.820312 35.53125 25.800781 35.53125 25.78125 35.527344 C 25.726562 35.523438 25.679688 35.523438 25.625 35.515625 C 25.601562 35.515625 25.578125 35.511719 25.550781 35.511719 C 25.488281 35.507812 25.425781 35.507812 25.363281 35.507812 C 25.324219 35.507812 25.289062 35.503906 25.25 35.503906 C 25.191406 35.503906 25.132812 35.503906 25.078125 35.496094 L 24.398438 35.496094 C 24.289062 35.496094 24.175781 35.503906 24.0625 35.507812 C 24.019531 35.507812 23.96875 35.511719 23.925781 35.511719 C 23.886719 35.511719 23.851562 35.515625 23.8125 35.515625 C 23.746094 35.523438 23.675781 35.527344 23.613281 35.53125 C 23.546875 35.539062 23.480469 35.542969 23.414062 35.546875 C 23.34375 35.550781 23.28125 35.554688 23.214844 35.566406 C 23.183594 35.566406 23.15625 35.570312 23.125 35.574219 L 22.746094 35.621094 C 22.691406 35.625 22.640625 35.632812 22.589844 35.640625 C 22.539062 35.644531 22.484375 35.652344 22.4375 35.660156 C 22.28125 35.683594 22.125 35.703125 21.972656 35.730469 C 21.9375 35.738281 21.90625 35.742188 21.871094 35.75 C 21.828125 35.757812 21.789062 35.765625 21.742188 35.777344 C 21.691406 35.785156 21.632812 35.796875 21.578125 35.804688 C 21.535156 35.816406 21.496094 35.820312 21.449219 35.828125 C 21.429688 35.835938 21.410156 35.835938 21.398438 35.839844 C 21.363281 35.84375 21.328125 35.855469 21.292969 35.859375 C 21.234375 35.875 21.175781 35.882812 21.117188 35.898438 C 21.058594 35.914062 21 35.921875 20.941406 35.9375 C 20.933594 35.9375 20.921875 35.941406 20.914062 35.941406 C 20.890625 35.945312 20.863281 35.953125 20.839844 35.960938 C 20.785156 35.976562 20.726562 35.992188 20.667969 36.003906 C 20.605469 36.019531 20.546875 36.035156 20.484375 36.054688 C 20.464844 36.058594 20.4375 36.0625 20.414062 36.074219 C 20.351562 36.09375 20.28125 36.109375 20.21875 36.128906 C 20.148438 36.148438 20.074219 36.171875 19.996094 36.191406 C 19.945312 36.207031 19.890625 36.21875 19.84375 36.238281 C 19.742188 36.269531 19.644531 36.304688 19.539062 36.335938 C 19.507812 36.347656 19.472656 36.363281 19.4375 36.371094 C 18.707031 35.027344 18.101562 33.617188 17.632812 32.164062 C 17.0625 30.398438 16.695312 28.570312 16.53125 26.714844 C 16.503906 26.386719 16.484375 26.0625 16.46875 25.738281 C 16.464844 25.679688 16.464844 25.621094 16.464844 25.5625 C 16.460938 25.503906 16.460938 25.445312 16.460938 25.386719 C 16.460938 25.328125 16.453125 25.269531 16.453125 25.210938 C 16.453125 25.152344 16.449219 25.09375 16.449219 25.027344 C 17.367188 24.34375 18.363281 23.769531 19.429688 23.320312 C 21.191406 22.574219 23.066406 22.195312 25 22.195312 C 26.933594 22.195312 28.808594 22.578125 30.570312 23.320312 C 31.636719 23.769531 32.632812 24.339844 33.550781 25.027344 L 33.550781 25.035156 C 33.550781 25.082031 33.550781 25.125 33.542969 25.175781 C 33.542969 25.242188 33.539062 25.3125 33.539062 25.386719 C 33.539062 25.417969 33.539062 25.449219 33.535156 25.484375 C 33.53125 25.570312 33.53125 25.652344 33.523438 25.742188 C 33.511719 26.070312 33.484375 26.390625 33.460938 26.71875 C 33.300781 28.597656 32.925781 30.453125 32.339844 32.234375 C 31.863281 33.714844 31.25 35.136719 30.503906 36.488281 Z M 37.183594 40.929688 C 35.839844 39.464844 34.246094 38.257812 32.480469 37.351562 C 33.902344 34.730469 34.898438 31.84375 35.382812 28.785156 C 36.007812 29.617188 36.523438 30.523438 36.933594 31.492188 C 37.609375 33.089844 37.949219 34.785156 37.949219 36.53125 C 37.949219 38.046875 37.691406 39.527344 37.183594 40.929688 Z M 37.183594 40.929688 "/>
<path style=" stroke:none;fill-rule:nonzero;fill:rgb(90.588236%,23.137255%,21.568628%);fill-opacity:1;" d="M 25 40.003906 C 25.425781 40.003906 26.207031 41.125 26.207031 42.953125 C 26.207031 44.785156 25.425781 45.902344 25 45.902344 C 24.574219 45.902344 23.792969 44.785156 23.792969 42.953125 C 23.792969 41.125 24.574219 40.003906 25 40.003906 M 25 39.027344 C 23.792969 39.027344 22.816406 40.785156 22.816406 42.953125 C 22.816406 45.121094 23.792969 46.878906 25 46.878906 C 26.207031 46.878906 27.183594 45.121094 27.183594 42.953125 C 27.183594 40.785156 26.207031 39.027344 25 39.027344 Z M 25 39.027344 "/>
</g>
</svg>

<svg xmlns="http://www.w3.org/2000/svg" width="50" height="px" viewBox="0 0 50 50"><path d="M24.512 14.707a.488.488 0 10.977 0 .488.488 0 00-.977 0zm0 0" fill="#e73b37"/><path d="M19.547 36.352c.101-.032.2-.067.3-.098l-.3.098zm0 0c.101-.032.2-.067.3-.098l-.3.098zm0 0" fill="#39393a"/><path d="M24.992 12.531a2.156 2.156 0 110 4.313 2.156 2.156 0 110-4.313m0-.976a3.13 3.13 0 00-3.137 3.133 3.13 3.13 0 003.137 3.132 3.13 3.13 0 003.133-3.133 3.13 3.13 0 00-3.133-3.132zm0 0" fill="#e73b37"/><path d="M35.68 25.855c.02-.425.027-.851.027-1.28 0-8.77-4.203-16.56-10.707-21.458-6.5 4.899-10.703 12.688-10.703 21.457 0 .43.008.856.031 1.278a15.05 15.05 0 00-4.426 10.675 15 15 0 002.399 8.168 14.725 14.725 0 016.234-5.629 14.597 14.597 0 016.29-1.414c2.359 0 4.585.555 6.558 1.547a14.711 14.711 0 016.133 5.781 15.038 15.038 0 002.582-8.453 15.07 15.07 0 00-4.418-10.672zM17.145 18.72a24.696 24.696 0 011.98-5.344 24.494 24.494 0 013.105-4.684 25.11 25.11 0 012.774-2.808 24.78 24.78 0 015.879 7.492 24.505 24.505 0 011.984 5.344c.422 1.75.656 3.55.692 5.367A15.08 15.08 0 0025 21.43a15.05 15.05 0 00-8.55 2.656c.034-1.816.269-3.617.695-5.367zm-4.426 21.933a12.848 12.848 0 01-.668-4.12 12.848 12.848 0 012.574-7.747c.473 3 1.438 5.844 2.82 8.426a16.84 16.84 0 00-4.726 3.441zm17.785-4.164c-.035-.011-.074-.023-.11-.039-.019-.008-.042-.011-.062-.023-.027-.012-.062-.024-.094-.035-.039-.016-.07-.024-.11-.04a.613.613 0 00-.112-.03l-.043-.016-.153-.051c-.058-.02-.117-.035-.172-.05l-.144-.048c-.012-.004-.02-.004-.035-.008-.055-.015-.114-.035-.168-.05a1.751 1.751 0 01-.168-.043l-.352-.086a1.21 1.21 0 00-.152-.035 2.835 2.835 0 00-.176-.04c-.062-.015-.121-.03-.187-.039h-.012l-.137-.03c-.02-.005-.035-.005-.055-.009-.054-.011-.109-.02-.167-.03a1.4 1.4 0 01-.176-.036l-.262-.043a1.645 1.645 0 01-.137-.02c-.039-.003-.078-.015-.12-.019a6.268 6.268 0 00-.38-.047c-.058-.004-.11-.016-.168-.02h-.02a1.627 1.627 0 00-.136-.015 1.923 1.923 0 01-.156-.016c-.086-.008-.168-.011-.25-.02-.04-.003-.074-.003-.113-.007-.043-.004-.094-.004-.137-.012-.02 0-.04 0-.059-.004-.054-.004-.101-.004-.156-.011-.023 0-.047-.004-.074-.004-.063-.004-.125-.004-.188-.004-.039 0-.074-.004-.113-.004-.059 0-.117 0-.172-.008h-.68c-.109 0-.222.008-.335.012-.043 0-.094.004-.137.004-.04 0-.074.004-.113.004-.067.007-.137.011-.2.015a3.419 3.419 0 01-.199.016c-.07.004-.133.008-.2.02a.68.68 0 00-.089.007l-.379.047a1.895 1.895 0 00-.156.02 1.8 1.8 0 00-.152.02c-.157.023-.313.042-.465.07-.035.007-.067.011-.102.019a1.921 1.921 0 00-.129.027c-.05.008-.11.02-.164.028-.043.011-.082.015-.129.023-.02.008-.039.008-.05.012-.036.004-.07.015-.106.02-.059.015-.117.023-.176.038-.058.016-.117.024-.176.04l-.027.003a.52.52 0 00-.074.02 2.21 2.21 0 01-.172.043 3.213 3.213 0 00-.184.05c-.02.005-.047.008-.07.02-.062.02-.133.035-.195.055-.07.02-.145.043-.223.062-.05.016-.105.028-.152.047-.102.032-.2.067-.305.098-.031.012-.066.027-.102.035a24.68 24.68 0 01-2.906-9.656 27.89 27.89 0 01-.062-.977c-.004-.058-.004-.117-.004-.175-.004-.06-.004-.118-.004-.176 0-.059-.008-.117-.008-.176 0-.059-.004-.117-.004-.184a14.24 14.24 0 012.98-1.707A14.208 14.208 0 0125 22.195a14.278 14.278 0 018.55 2.832v.008c0 .047 0 .09-.007.14 0 .067-.004.137-.004.212 0 .031 0 .062-.004.097-.004.086-.004.168-.012.258-.011.328-.039.649-.062.977a24.262 24.262 0 01-1.121 5.515 24.023 24.023 0 01-1.836 4.254zm6.68 4.442a16.761 16.761 0 00-4.704-3.578 26.709 26.709 0 002.903-8.567c.625.832 1.14 1.738 1.55 2.707a12.862 12.862 0 011.016 5.04c0 1.515-.258 2.995-.765 4.398zm0 0" fill="#39393a"/><path d="M25 40.004c.426 0 1.207 1.121 1.207 2.95 0 1.831-.781 2.948-1.207 2.948-.426 0-1.207-1.117-1.207-2.949 0-1.828.781-2.95 1.207-2.95m0-.976c-1.207 0-2.184 1.758-2.184 3.926S23.793 46.88 25 46.88c1.207 0 2.184-1.758 2.184-3.926s-.977-3.926-2.184-3.926zm0 0" fill="#e73b37"/></svg>
